X:1
T:Two Young Brethren
M:3/4
L:1/8
K:G
E-F| G2 G2D-F| G2 G2 D2|E-FG-F A2| D4 AA| A3- B| cA| d3 c B2| A4 DD|\
 A3 Bc-B| d2 B2G-A| B2 G2 E2| E2- D2 DD| G2 B2 d2|d-c B2 A2| G4||

